src/lib/packages/icons/src/assets/line/exclamation-circle.svg

<svg xmlns="http://www.w3.org/2000/svg" width="24" height="24" fill="none"><path fill="currentColor" d="M12 22.75C6.072 22.75 1.25 17.928 1.25 12S6.072 1.25 12 1.25 22.75 6.072 22.75 12 17.928 22.75 12 22.75Zm0-20c-5.101 0-9.25 4.149-9.25 9.25s4.149 9.25 9.25 9.25 9.25-4.149 9.25-9.25S17.101 2.75 12 2.75Zm1.02 12.75a1 1 0 0 0-1-1h-.01a.996.996 0 0 0-.995 1c0 .552.453 1 1.005 1a1 1 0 0 0 1-1Zm-.27-3.429V7.5a.75.75 0 0 0-1.5 0v4.571a.75.75 0 0 0 1.5 0Z"/></svg>

<svg width="24" height="24" viewBox="0 0 24 24" fill="none" xmlns="http://www.w3.org/2000/svg">
<path d="M12 22.75C6.072 22.75 1.25 17.928 1.25 12C1.25 6.072 6.072 1.25 12 1.25C17.928 1.25 22.75 6.072 22.75 12C22.75 17.928 17.928 22.75 12 22.75ZM12 2.75C6.899 2.75 2.75 6.899 2.75 12C2.75 17.101 6.899 21.25 12 21.25C17.101 21.25 21.25 17.101 21.25 12C21.25 6.899 17.101 2.75 12 2.75ZM13.02 15.5C13.02 14.948 12.573 14.5 12.02 14.5H12.01C11.458 14.5 11.0149 14.948 11.0149 15.5C11.0149 16.052 11.468 16.5 12.02 16.5C12.572 16.5 13.02 16.052 13.02 15.5ZM12.75 12.071V7.5C12.75 7.086 12.414 6.75 12 6.75C11.586 6.75 11.25 7.086 11.25 7.5V12.071C11.25 12.485 11.586 12.821 12 12.821C12.414 12.821 12.75 12.485 12.75 12.071Z" fill="currentColor"/>
</svg>
